X:05
C:Page 03
T:Death of Parker. MBe.05
S:Matthew Betham MS, Towcett Cumbria, 1815
O:England;Cumbria;Towcett
Z:VMP – Hugh Taylor, 2012
T:President Parker,aka. MBe.05
T:Constant Billy,aka. MBe.05
T:Cease Your Funning,aka. MBe.05
M:6/8
L:1/8
Q:3/8=100
R:.Jig
N:See the song of the same name in the Hammond & Gardiner collection
K:G
D|G2 G GBd|c2 A AFD|B2 G E2 D|DEF G2 D|
G2 G GBd|c2 A AFD|B2 G E2 D|DEF G2||
c|cBc e2 c|ABc dBG|GBd d^cd|AB^c d2 e|
dBG GBd|c2 A AFD|B2 G E2 D|DEF G2|]

